X: 15494
T: Glengrant
R: strathspey
M: 4/4
K: Amajor
E|A>c e<a e<Ac>A|a>Ac>A G<BB>c|A>c e<a f<d d>f|e/c/A d>B c<AA>E|
A>c e<a e<Ac>A|a>Ac>A G<BB>c|A>c e<a D/F/A d>f|e/c/A d>B c<A [A2E2]|
f<ca>g f2 c>^e|f<cc>B A<F F>^d|e<B_g>f e2 B>^d|e<BB>A G<EE>e|
f<ca>g f2 c>B|Ac e/f/g (3aed (3cBA|D>FB>A C>E A>a|e/c/A d>B c>A [A2E2]||

